icons-dark/actions/16/draw-square-inverted-corners.svg

<svg xmlns="http://www.w3.org/2000/svg" viewBox="0 0 16 16">
  <defs id="defs3051">
    <style type="text/css" id="current-color-scheme">
      .ColorScheme-Text {
        color:#f2f2f2;
      }
      </style>
  </defs>
 <path style="fill:currentColor;fill-opacity:1;stroke:none" 
     d="m5 2v2a1 1 0 0 1 -1 1h-2v6h2a1 1 0 0 1 1 1v2h6v-2a1 1 0 0 1 1 -1h2v-6h-2a1 1 0 0 1 -1 -1v-2zm1 1h4v1a2 2 0 0 0 2 2h1v4h-1a2 2 0 0 0 -2 2v1h-4v-1a2 2 0 0 0 -2 -2h-1v-4h1a2 2 0 0 0 2 -2z"
     class="ColorScheme-Text"
     />
</svg>

<?xml version="1.0" encoding="UTF-8" standalone="no"?>
<!-- Created with Inkscape (http://www.inkscape.org/) -->

<svg
   xmlns:dc="http://purl.org/dc/elements/1.1/"
   xmlns:cc="http://creativecommons.org/ns#"
   xmlns:rdf="http://www.w3.org/1999/02/22-rdf-syntax-ns#"
   xmlns:svg="http://www.w3.org/2000/svg"
   xmlns="http://www.w3.org/2000/svg"
   xmlns:sodipodi="http://sodipodi.sourceforge.net/DTD/sodipodi-0.dtd"
   xmlns:inkscape="http://www.inkscape.org/namespaces/inkscape"
   width="16"
   height="16"
   id="svg3049"
   version="1.1"
   inkscape:version="0.91 r13725"
   sodipodi:docname="draw-square-inverted-corners.svg"
   inkscape:export-filename="/home/uri/.kde/share/icons/NITRUX-KDE/16x16/actions/view-right-new.png"
   inkscape:export-xdpi="30"
   inkscape:export-ydpi="30">
  <defs
     id="defs3051" />
  <sodipodi:namedview
     id="base"
     pagecolor="#ffffff"
     bordercolor="#666666"
     borderopacity="1.0"
     inkscape:pageopacity="0.0"
     inkscape:pageshadow="2"
     inkscape:zoom="33.384652"
     inkscape:cx="8.7907537"
     inkscape:cy="9.3633472"
     inkscape:document-units="px"
     inkscape:current-layer="layer1"
     showgrid="true"
     fit-margin-top="0"
     fit-margin-left="0"
     fit-margin-right="0"
     fit-margin-bottom="0"
     inkscape:window-width="1920"
     inkscape:window-height="957"
     inkscape:window-x="-4"
     inkscape:window-y="0"
     inkscape:window-maximized="1"
     inkscape:showpageshadow="false"
     borderlayer="true"
     inkscape:snap-bbox="true"
     inkscape:object-nodes="true"
     inkscape:snap-global="true">
    <inkscape:grid
       type="xygrid"
       id="grid4085" />
    <sodipodi:guide
       position="2.0000044,14.00003"
       orientation="12,0"
       id="guide4075" />
    <sodipodi:guide
       position="2.0000044,2.0000296"
       orientation="0,12"
       id="guide4077" />
    <sodipodi:guide
       position="14.000004,2.0000296"
       orientation="-12,0"
       id="guide4079" />
    <sodipodi:guide
       position="14.000004,14.00003"
       orientation="0,-12"
       id="guide4081" />
  </sodipodi:namedview>
  <metadata
     id="metadata3054">
    <rdf:RDF>
      <cc:Work
         rdf:about="">
        <dc:format>image/svg+xml</dc:format>
        <dc:type
           rdf:resource="http://purl.org/dc/dcmitype/StillImage" />
        <dc:title></dc:title>
      </cc:Work>
    </rdf:RDF>
  </metadata>
  <g
     inkscape:label="Capa 1"
     inkscape:groupmode="layer"
     id="layer1"
     transform="translate(-421.71429,-531.79074)">
    <path
       style="fill:#f2f2f2;fill-opacity:1;fill-rule:evenodd;stroke:none;stroke-width:2;stroke-miterlimit:4;stroke-dasharray:none;stroke-opacity:1"
       d="M 5 2 L 5 3 L 5 4 A 1 1 0 0 1 4 5 L 3 5 L 2 5 L 2 6 L 2 10 L 2 11 L 4 11 A 1 1 0 0 1 5 12 L 5 14 L 6 14 L 11 14 L 11 13 L 11 12 A 1 1 0 0 1 12 11 L 14 11 L 14 10 L 14 5 L 12 5 A 1 1 0 0 1 11 4 L 11 2 L 5 2 z M 6 3 L 10 3 L 10 4 A 2 2 0 0 0 12 6 L 13 6 L 13 10 L 12 10 A 2 2 0 0 0 10 12 L 10 13 L 6 13 L 6 12 A 2 2 0 0 0 4 10 L 3 10 L 3 6 L 4 6 A 2 2 0 0 0 6 4 L 6 3 z "
       transform="translate(421.71429,531.79074)"
       id="rect4497" />
  </g>
</svg>
